X:1
T:Bach - Fantasia in G Major.
C:Johann Sebastian Bach.
%%score { ( 1 4 5 ) | ( 2 6 ) | 3 }
L:1/8
Q:1/4=120
M:12/8
K:G
V:1 treble nm="Organ"
V:4 treble 
V:5 treble 
V:2 bass 
V:6 bass 
V:3 bass 
V:1
"^Tres vitement""^J.S. Bach\nFantasia in G Major\n       BWV 572"!mf! g/d/B/d/.g g/e/c/e/.g g/d/B/d/.g g/c/A/c/.g | %1
 g/f/g/ d/c/d/ g/f/g/ e/d/e/ g/f/g/ d/c/d/ g/f/g/ c/B/c/ | %2
 g/f/g/ d/c/d/ G/A/B/c/ d/e/ f/e/f/ c/A/c/ G/A/B/c/ d/e/4f/4 | %3
 g/f/g/ d/c/d/ G/A/B/c/ d/e/ f/e/f/ c/A/c/ G/A/B/c/ d/e/4f/4 | %4
!mf! g/d/B/d/.g g/e/c/e/.g g/d/B/d/.g g/c/A/c/.g | %5
 g/f/g/ d/c/d/ g/f/g/ e/d/e/ g/f/g/ d/c/d/ g/f/g/ c/B/c/ | %6
 g/f/g/ d/c/d/ G/A/B/c/ d/e/ =f/e/f/ d/B/d/ G/A/B/c/ d/e/4f/4 | %7
 g/=f/g/ e/c/e/ G/A/B/c/ d/e/ =f/e/f/ d/B/d/ G/A/B/c/ d/e/4f/4 | %8
 e/d/e/ c/B/c/ G/A/B/ c/d/e/ d/c/d/ B/A/B/ G/A/B/c/ d/e/4=f/4 | %9
 e/d/e/ c/B/c/ G/A/B/ c/d/e/ d/c/d/ B/A/B/ G/A/B/ c/d/B/ | %10
 c/B/c/ A/F/A/ D/E/F/G/ A/B/4c/4 B/A/B/ G/F/G/ D/E/F/G/ A/B/ | %11
 c/B/c/ A/F/A/ D/E/F/G/ A/B/4c/4 B/A/B/ G/F/G/ D/E/F/ G/A/B/ | %12
 A/G/A/ F/C/F/ A,/B,/C/ D/E/F/ G/F/G/ D/C/D/ B,/C/D/E/ F/G/ | %13
 A/G/A/ F/C/F/ A,/B,/C/ D/E/F/ G/F/G/ D/C/D/ B,/C/D/ E/F/G/ | %14
 F/E/F/ x3/2 x2 D/E/4F/4 G/F/G/ x/ x3 D/E/ | F/E/F/ x3/2 x2 D/E/4F/4 G/F/G/ x/ x3 D/E/4=F/4 | %16
 G/E/G,/E/.G =F/D/G,/D/.F E/C/G,/C/.E D/B,/G,/B,/.D | %17
 G/=F/G/ E/G,/E/ F/E/F/ D/G,/D/ E/D/E/ C/G,/C/ D/C/D/ B,/G,/B,/ | %18
 C/B,/C/ x3/2 C/B,/C/ x3/2 C/B,/C/ x3/2 C/B,/C/ x3/2 | %19
 B,/A,/B,/ x3/2 B,/A,/B,/ x3/2 B,/A,/B,/ x3/2 B,/A,/B,/ x3/2 | _B,/A,/B,/ x3/2 E/D/E/ x3/2 x6 | %21
 x12 | x3 D/C/D/ x3/2 E/D/E/ x3/2 F/E/F/ x3/2 | %23
 G/D/B,/ x3/2 G/E/C/ x3/2 G/D/B,/ x3/2 F/C/A,/ x3/2 | %24
 G/ x3/2 G/A/ B/ x G/ B/c/ d/ D/G/B/ d/f/ g/f/g/ d/B/d/ | G/F/G/ x3/2 G/F/G/ x3/2 x6 | %26
[Q:1/4=115] x6[Q:1/4=110] x4 x/ C/D/F/[Q:1/4=105] | %27
[Q:1/4=100] x2[Q:1/4=95] D/E/[Q:1/4=90] F/E/[Q:1/4=85] D/E/F/G/[Q:1/4=80] A/G/[Q:1/4=75]F/G/[Q:1/4=70]A/B/[Q:1/4=65] c/ G/[Q:1/4=60]A/ c/[Q:1/4=50]d/[Q:1/4=40]f/ || %28
[M:2/2]"^Gravement"[Q:1/4=120] z4 g4- | g2 g2 f2 e2 | d8- | d2 d2 c4- | c2 c2 B4 | A8 | G8 | %35
 A4 BcAB | c8- | c2 c2 B4 |"^(""^)" P^c2 BA d4- | d4 ^c4 | d8 | e8 | A8- | A2 A2 G4- | %44
 G2 G2 F2 G2 | A6 B2 |"^(""^)" P^c3 B/A/ d4- | d4 ^c4 | d4 f4- | f2 f2 e4- | e2 e2 d2 ^c2 | B8 | %52
"^(""^)" P^A2 ^GF B2 ^cd | e8- | e2 e2 d4- | d2 d2 ^c2 B2 | =c2 ^A2 B4- | B2 B2 ^A4 | B4 d4- | %59
 d2 d2 c4- | c2 c2 B2 A2 | G4 A2 B2 | c8- | c2 c2 B4- | B2 B2 A2 G2 |"^(""^)" PF4 G2 A2 | B4 A4 | %67
 G8 | A8 | B4 cdBc | d8- | d2 d2 c4- | c2 c2 B2 A2 |"^(""^)" P^G2 ^FE A4- | A4 ^G4 | A4 c4- | %76
 c2 c2 B4- | B2 B2 A2 G2 | F4 d4- | d2 d2 c2 B2 | A4 a4- | a2 a2 g2 =f2 | e2 ^f2 g4- | g4 f4- | %84
 f2 f2 e4- | e4 ^d4 | e6 =d2 | c8- | c2 c2 B4- | B2 B2 A4- | A2 A2 G4- | G2 G2 F2 E2 | ^D4 E4- | %93
 E4 ^D4 | E8 | F8 | G8 | A8- | ABAG g4- | g2 g2 =f4- | f2 =f2 e4- | e2 e2 d2 c2 |"^(""^)" PB4 c4- | %103
 c4 B4 | c4 e4- | e2 e2 d2 c2 | B4 B4- | B2 B2 A2 G2 | ^F4 =f4- | f2 =f2 e2 d2 | c4 c4- | %111
 c2 c2 B2 A2 | ^G4 A2 B2 | c2 ^c2 d2 e2 | =f2 ^f2 ^g2 a2 | d4 c2 B2 | c4 B4 | A4 a4- | %118
 a2 a2 =g2 =f2 | e8- | e2 e2 d4- | d2 d2 c4 | B6 B2 | A8 | B8 | A6 A2 | B2 ^c2 d4- | d2 d2 e2 ^f2 | %128
 g2 ^c2 d4- | d4 ^c4 | d8 | e8 | f8 | g8 | a8- | a8 | _b6 a2 | g6 =f2 | _e6 d2 | ^c4 d4- | d4 ^c4 | %141
 d4 d4- | d2 d2 =c4- | c2 c2 B2 A2 | B8 | z8 | z8 | z4 g4- | g2 g2 =f4- | =f2 f2 e2 d2 | e8 | d8 | %152
 c8- | c2 c2 B4- | B2 B2 A2 G2 | ^F4 G4- | G4 F4 | G8 | A8- | A2 GF G4- | G2 G2 =F4- | %161
 F2 =F2 E2 D2 | E4 e4- | e2 e2 d4- | d2 d2 c2 B2 | A4 a4- | a2 a2 g4- | g2 g2 f2 e2 | d8- | %169
 d2 d2 c4- | c2 c2 B2 A2 | G6 G2 | A2 B2 c4- | c2 c2 B4- | B2 B2 A2 G2 | ^F2 ED d4- | d2 d2 c2 B2 | %177
 A4 a4- | a2 a2 g4- | g2 g2 f2 e2 | d4 b4- | b2 b2 a2 g2 | f4 g4- | %183
[Q:1/4=110] g2[Q:1/4=100] g2[Q:1/4=90] f4[Q:1/4=80] | g2 z2 z4 |] %185
"^Lentement"[Q:1/4=40] (6:4:6(E/4F/4G/4 A/4_B/4g/4) (6:4:6(E/4F/4G/4 A/4B/4g/4) (6:4:6E/4F/4G/4 A/4B/4g/4 (6:4:6E/4F/4G/4 A/4B/4g/4 (6:4:6E/4A/4=B/4 ^c/4d/4a/4 (6:4:6E/4A/4B/4 c/4d/4a/4 (6:4:6E/4A/4B/4 c/4d/4a/4 (6:4:6E/4A/4B/4 c/4d/4a/4 | %186
 (6:4:6F/4^A/4B/4 ^c/4^d/4=a/4 (6:4:6F/4A/4B/4 c/4d/4=a/4 (6:4:6F/4A/4B/4 c/4d/4=a/4 (6:4:6F/4A/4B/4 c/4d/4=a/4 (6:4:6G/4=B/4=c/4 =d/4e/4g/4 (6:4:6G/4B/4c/4 d/4e/4g/4 (6:4:6G/4B/4c/4 d/4e/4g/4 (6:4:6G/4B/4c/4 d/4e/4g/4 | %187
 (6:4:6A/4B/4c/4 d/4e/4c'/4 (6:4:6A/4B/4c/4 d/4e/4c'/4 (6:4:6G/4B/4c/4 d/4e/4c'/4 (6:4:6G/4B/4c/4 d/4e/4c'/4 (6:4:6F/4^A/4B/4 ^c/4^d/4b/4 (6:4:6F/4A/4B/4 c/4d/4b/4 (6:4:6F/4A/4B/4 c/4d/4b/4 (6:4:6F/4A/4B/4 c/4d/4b/4 | %188
 (6:4:6=F/4^A/4B/4 ^c/4=d/4b/4 (6:4:6F/4A/4B/4 c/4=d/4b/4 (6:4:6F/4A/4B/4 c/4=d/4b/4 (6:4:6F/4A/4B/4 c/4=d/4b/4 (6:4:6E/4^G/4=A/4 B/4^c/4a/4 (6:4:6E/4G/4A/4 B/4^c/4a/4 (6:4:6E/4G/4A/4 B/4^c/4a/4 (6:4:6E/4G/4A/4 B/4^c/4a/4 | %189
 (6:4:6_E/4^G/4A/4 B/4=c/4a/4 (6:4:6E/4G/4A/4 B/4=c/4a/4 (6:4:6E/4G/4A/4 B/4=c/4a/4 (6:4:6E/4G/4A/4 B/4=c/4a/4 (6:4:6D/4^F/4=G/4 A/4B/4g/4 (6:4:6D/4F/4G/4 A/4B/4g/4 (6:4:6D/4F/4G/4 A/4B/4g/4 (6:4:6D/4F/4G/4 A/4B/4g/4 | %190
 (6:4:6^C/4F/4G/4 A/4_B/4g/4 (6:4:6C/4F/4G/4 A/4B/4g/4 (6:4:6C/4F/4G/4 A/4B/4g/4 (6:4:6C/4F/4G/4 A/4B/4g/4 (6:4:6=C/4^G/4A/4 =B/4c/4f/4 (6:4:6C/4G/4A/4 B/4c/4f/4 (6:4:6C/4G/4A/4 B/4c/4f/4 (6:4:6C/4G/4A/4 B/4c/4f/4 | %191
 (6:4:6D/4A/4B/4 c/4d/4g/4 (6:4:6D/4A/4B/4 c/4d/4g/4 (6:4:6D/4A/4B/4 c/4d/4g/4 (6:4:6D/4A/4B/4 c/4d/4g/4 (6:4:6E/4B/4^c/4 d/4e/4g/4 (6:4:6E/4B/4c/4 d/4e/4g/4 (6:4:6E/4B/4c/4 d/4e/4g/4 (6:4:6E/4B/4c/4 d/4e/4g/4 | %192
 (6:4:6D/4A/4B/4 ^c/4d/4f/4 (6:4:6E/4A/4B/4 c/4d/4g/4 (6:4:6F/4A/4B/4 c/4d/4a/4 (6:4:6G/4A/4B/4 c/4d/4b/4 (6:4:6D/4A/4B/4 c/4d/4f/4 (6:4:6E/4A/4B/4 c/4d/4g/4 (6:4:6F/4A/4B/4 c/4d/4a/4 (6:4:6G/4A/4B/4 c/4d/4b/4 | %193
 (6:4:6D/4E/4F/4 G/4A/4d/4 (6:4:6E/4F/4G/4 A/4B/4d/4 (6:4:6F/4G/4A/4 B/4=c/4d/4 (6:4:6G/4A/4B/4 c/4d/4e/4 | %194
 (6:4:6D/4E/4F/4 G/4A/4d/4 (6:4:6E/4F/4G/4 A/4B/4d/4 (6:4:6F/4G/4A/4 B/4c/4d/4 (6:4:6G/4A/4B/4 c/4d/4e/4 | %195
 (6:4:6C/4E/4F/4 G/4A/4d/4 (6:4:6B,/4F/4G/4 A/4B/4d/4 (6:4:6B,/4D/4E/4 F/4G/4c/4 (6:4:6A,/4E/4F/4 G/4A/4c/4 x/ (3E/4F/4B/4 x/ (3F/4G/4B/4 x/ (3D/4E/4A/4 x/ (3E/4F/4A/4 | %196
 (6:4:4x3/4 ^C/4D/4G/4 (6:4:4x3/4 C/4D/4G/4 (6:4:4x3/4 D/4E/4G/4 (6:4:4x3/4 D/4E/4G/4 x/ (3E/4^F/4G/4 x/ (3^C/4D/4G/4 x/ (3A,/4_B,/4^C/4 x/ (3A,/4B,/4C/4 | %197
 (6:4:4x3/4 G,/4A,/4D/4 (6:4:4x3/4 =C/4D/4G/4 (6:4:4x3/4 B,/4C/4F/4 (6:4:4x3/4 A,/4B,/4E/4 x/ (3G,/4A,/4D/4 x/ (3C/4D/4G/4 x/ (3B,/4C/4F/4 x/ (3A,/4B,/4E/4 | %198
 (6:4:4x3/4 G,/4A,/4D/4 (6:4:4x3/4 A,/4B,/4D/4 (6:4:4x3/4 B,/4C/4D/4 (6:4:4x3/4 C/4D/4E/4 (6:4:4x3/4 G,/4A,/4D/4 (6:4:4x3/4 A,/4B,/4D/4 (6:4:4x3/4 B,/4C/4D/4 (6:4:4x3/4 C/4D/4E/4 | %199
 (6:4:4x3/4 G,/4A,/4D/4 (6:4:4x3/4 A,/4B,/4D/4 (6:4:4x3/4 A,/4_B,/4E/4 (6:4:4x3/4 =B,/4C/4F/4 x2 x (6:4:4x3/4 C/4D/4G/4 | %200
 z/ (3F/4G/4B/4 (3D/4F/4G/4 (3A/4B/4d/4 (3G/4A/4B/4 (3c/4d/4g/4[Q:1/4=38] (3^A/4B/4c/4[Q:1/4=36] (3d/4e/4[Q:1/4=24]_b/4 x3 =C/4D/4E/4F/4[Q:1/4=40] | %201
 G/4D/4E/4F/4G/4F/4G/4A/4 B/4A/4B/4c/4d/4c/4d/4[Q:1/4=30]e/4 PF3[Q:1/4=50] G | %202
[Q:1/4=25] !fermata![DG]8 |] %203
V:2
 x12 | x12 | x12 | x12 | z12 | x12 | x12 | x12 | x12 | x12 | x12 | x12 | x12 | x12 | %14
 x3/2 C/A,/C/ G,/A,/B,/C/ x2 x/ D/B,/D/ G,/A,/B,/C/ x | %15
 x3/2 C/A,/C/ G,/A,/B,/C/ x2 x/ D/B,/D/ G,/A,/B,/C/ x | z12 | x12 | %18
 x3/2 A,/G,/A,/ x3/2 A,/G,/A,/ x3/2 A,/^F,/A,/ x3/2 A,/F,/A,/ | %19
 x3/2 A,/G,/A,/ x3/2 G,/F,/G,/ x3/2 G,/E,/G,/ x3/2 G,/D,/G,/ | %20
 x3/2 G,/^C,/G,/ x3/2 G,/C,/G,/ A,/G,/A,/ G,/C,/G,/ _B,/A,/B,/ G,/C,/G,/ | %21
 F,/E,/F,/ D,/=C,/D,/ G,/F,/G,/ D,/B,,/D,/ A,/G,/A,/ E,/C,/E,/ B,/A,/B,/ F,/D,/F,/ | %22
 C/B,/C/ G,/E,/G,/ x3/2 A,/F,/A,/ x3/2 B,/G,/B,/ x3/2 C/A,/C/ | %23
 x3/2 G,/B,/D/ x3/2 G,/C/E/ x3/2 G,/B,/D/ x3/2 G,/A,/C/ | x/ G,/B,/D/ x3/2 B,/D/x/ x x2 x4 | %25
 x3/2 G,/B,/D/ x3/2 D/B,/D/ G,/F,/G,/ G,,/B,,/D,/ G,/F,/G,/ D,/B,,/D,/ | %26
 G,,/A,,/B,,/C,/ D,/E,/ F,/E,/ D,/E,/F,/G,/ A,/G,/F,/G,/A,/B,/ C/ G,/A,/ x3/2 | %27
 G,/A,/B,/C/ x6 x4 ||[M:2/2]!fff! z4 G,2 F,2 | E,4 A,2 G,2 | F,4 G,4- | G,4 A,4- | A,2 A,2 B,2 C2 | %33
 D6 C2 | B,2 A,2 G,4 |"_)""_(" A,4 G,4 | C8 | D8 | E4 F4- | F4 E4 | D4 G4- | G2 F2 E4- | %42
 E2 E2 D2 C2 | B,8 | A,8- | A,2 B,2 ^C4 | x8 | E8 | D4[K:treble] A4 | G8 | F8- | F2 F2 E2 D2 | %52
[K:bass] ^C4 B,4- | B,2 E2 F2 =G2 | F8- | F2 F2 E4- | E6 D2 | ^C8 | B,4 G2 F2 | E8- | E2 E2 D4 | %61
 E4 D4 | C8 | D8- | D2 D2 C4- | C4 D2 E2 | D4 =C4- | C2 B,2 E2 D2 | ^C4 D2 =C2 |"^(""_)" B,4 A,4- | %70
 A,2 D2 E2 =F2 | E8- | E2 E2 D2 C2 | B,4 C4 | B,8 | A,4 E4 |"^(""_)" D8- | D2 D2 C4- | %78
 C2 C2 B,2 A,2 | G,4 C4- | C2 B,2 A,4 | B,2 C2 D4- | D2 D2 C2 B,2 | A,8 | B,2 ^D2 E4 | F8 | %86
 E3 F G4- | G2 G2 F2 E2 | ^D8 | E2 =D2 C2 E2 | D2 C2 B,4- | B,=DCB, A,2 G,2 | F,4 G,4 | F,8 | E,8 | %95
 A,4- A,3 A, | G,4 B,4 | C4- C3 C | B,4 x4 | E,=F,E,D, C,E,D,C, | G,4 C,4- | C,2 D,E, =F,4 | %102
 D4 C2 ED | E4 D4 | C4 z2 E2 | A2 G2 ^F2 E2 | D4 E4- | E2 D2 C2 B,2 | A,2 x6 | B,,4 B,4 | %110
 C2 B,2 A,4- | A,4 B,4 | E,6 D,2 | A,6 G,2 | D2 A,2 E,4- | E,6 =F,2 | E,8- | E,A,=G,=F, E,D,E,C, | %118
 D,2 E,=F, G,4- | G,E,A,^G, A,4- | A,A,B,C DCB,C | E8- | E8 | E2 E2 D4- | D8 |[K:treble] C6 DC | %126
 B,2 E2 D2 =F2- | =F4 E2 _E2 | D2 =E2 D2 =F2 | E8 | D6 E^F | G2 FG A2 GA | D6 C2 | D2 =EF G2 =F2 | %134
 E4 =F2 G2 | A4 E2 ^F2 | G6 F2 | G2 A_B A4 | G6 =F2 | E4 =F4 | E8 | D6 =C2 |[K:bass] =B,4 C2 B,2 | %143
 A,4 D4- | D4 G2 =F2 | E4 D2 C2 | D8 | G6 =F2 | E4 D2 =C2 | =B,2 D2 G4- | G2 =F2 E4 | ^F4 G2 F2 | %152
 E2 D2 C2 E2 | D8- | D2 D2 C2 B,2 | A,4 B,4 | A,8 | G,8 | D,8 | G,6 =F,2 | E,4 A,4 | G,8- | %162
 G,2 B,2 A,2 G,2 | F,4 F4- | F2 F2 E4- | E2[K:treble] E2 D2 C2 | B,4 B4- | B2 B2 A4- | %168
 A2 A2 G2 F2 | E8 | D8- | D2 D2 C2 B,2 |[K:bass] A,2 D2 C4 | D8 | C8- | C2 C2 B,2 A,2 | [E,G,]8 | %177
 [F,A,]8 | [G,B,]8 | [A,C]8 | [B,D]8 | E6 FG | D8- | D8 | E2 z2 z4 |] x8 | x8 | x8 | x8 | x8 | x8 | %191
 x8 | x8 | x4 | x4 | x4 (3A,/4C/4D/4 x/ (3G,/4D/4E/4 x/ (3G,/4B,/4^C/4 x/ (3F,/4C/4D/4 x/ | %196
 (3=F,/4A,/4B,/4 x/ (3F,/4A,/4B,/4 x/ (3E,/4B,/4^C/4 x/ (3E,/4B,/4C/4 x/ (3D,/4C/4D/4 x/ (3D,/4A,/4B,/4 x/ (3D,/4^F,/4G,/4 x/ (3D,/4F,/4G,/4 x/ | %197
 (3D,/4E,/4F,/4 x/ (3D,/4A,/4=B,/4 x/ (3D,/4G,/4A,/4 x/ (3D,/4F,/4G,/4 x/ (3D,/4E,/4F,/4 x/ (3D,/4A,/4B,/4 x/ (3D,/4G,/4A,/4 x/ (3D,/4F,/4G,/4 x/ | %198
 (3D,/4E,/4F,/4 x/ (3E,/4F,/4G,/4 x/ (3F,/4G,/4A,/4 x/ (3G,/4A,/4B,/4 x/ (3D,/4E,/4F,/4 x/ (3E,/4F,/4G,/4 x/ (3F,/4G,/4A,/4 x/ (3G,/4A,/4B,/4 x/ | %199
 (3C,/4E,/4F,/4 x/ (3B,,/4F,/4G,/4 x/ (3_B,,/4F,/4G,/4 x/ (3A,,/4G,/4A,/4 x/ (3G,,/4A,,/4=B,,/4 (3C,/4D,/4G,/4 (3B,,/4D,/4E,/4 (3F,/4G,/4B,/4 (3D,/4F,/4G,/4 (3A,/4B,/4D/4 (3G,/4A,/4B,/4 x/ | %200
 (3B,/4D/4E/4 x/ x x2 z/4 D,/4E,/4F,/4G,/4F,/4G,/4A,/4 =B,/4G,/4A,/4B,/4x/4 x3/4 | x4 [A,C]4 | %202
!fff! !fermata![D,G,B,]8 |] %203
V:3
 z12 | z12 | z12 | z12 | z12 | z12 | z12 | z12 | z12 | z12 | z12 | z12 | z12 | z12 | z12 | z12 | %16
 z12 | z12 | z12 | z12 | z12 | z12 | z12 | z12 | z12 | z12 | z12 | z12 ||[M:2/2] G,,8 | A,,8 | %30
 B,,8 | C,8 | D,8- | D,8 | E,6 D,2 | C,4 B,,4 | A,,6 G,,2 | F,,4 G,,4- | G,,4 F,,2 G,,2 | A,,8 | %40
 B,,8 | ^C,8 | D,8 | G,,8 | A,,8- | A,,4 A,2 G,2 | F,2 E,2 F,2 D,2 | A,4 A,,4 | D,8 | E,8 | F,8 | %51
 G,6 F,2 | E,4 D,4- | D,2 D,2 ^C,2 B,,2 | ^A,,4 B,,4 | E,,4 E,4- | E,2 F,2 G,2 E,2 | F,4 F,,4 | %58
 B,,8 | =C,8 | D,8- | D,2 D,2 C,2 B,,2 | A,,2 B,,2 A,,2 G,,2 | F,,4 G,,4 | C,6 B,,2 | %65
 A,,4 B,,2 C,2 | D,6 D,,2 | G,,4 G,4- | G,2 G,2 =F,2 E,2 | D,4 C,4- | C,2 C,2 B,,2 A,,2 | %71
 ^G,,4 A,,4 | D,,4 D,4- | D,2 D,2 C,2 D,2 | E,4 E,,4 | A,,8 | B,,8 | C,8 | D,8 | E,8 | F,8 | G,8 | %82
 C,2 D,2 E,2 D,2 | C,2 B,,A,, D,4 | G,6 A,2 | B,4 B,,4 | E,4 E,,4 | A,,8 | B,,8 | C,6 ^C,2 | %90
 D,2 ^D,2 E,2 G,,2 | C,2 B,,2 C,2 A,,2- | A,,2 A,,2 G,,2 A,,2 | B,,4 B,,,4 | E,,2 G,,2 C,2 B,,2 | %95
 A,,2 F,,2 B,,4 | E,,2 B,,2 E,2 =D,2 | C,2 A,,2 D,4 | G,,8 | A,,8 | B,,4 C,4 | =F,,4 =F,4- | %102
 F,2 =F,2 E,2 F,2 | G,4 G,,4 | C,2 B,,2 A,,2 G,,2 | ^F,,4 ^F,4 | G,2 F,2 E,2 D,2 | C,8- | %108
 C,2 C,2 B,,2 A,,2 | ^G,,4 ^G,4 | A,2 =G,2 =F,2 E,2 | D,8- | D,2 D,2 C,2 B,,2 | A,,2 G,2 =F,2 E,2 | %114
 D,2 =C,2 B,,2 A,,2 | ^G,,2 E,,2 A,,2 D,2 | E,4 E,,4 | A,,8 | B,,8 | C,8 | D,8 | E,8- | E,8 | %123
 ^F,8 | ^G,4 =C,4- | C,2 B,,A,, =F,4- | F,2 E,2 =F,2 E,D, | _B,6 A,2 | _B,2 E,2 =F,2 E,D, | %129
 A,4 A,,4 | D,4 z4 | z8 | z8 | z4 G,4- | G,2 G,2 =F,2 E,2 | =F,2 G,2 A,4- | A,2 G,^F, G,2 A,2 | %137
 =B,2 ^C2 D4 | G,2 A,2 _B,4- | B,2 A,G, =F,2 E,D, | A,4 A,,4 | D,8 | E,8 | ^F,8 | G,4 G,4- | %145
 G,2 G,2 =F,4- | F,2 =F,2 E,2 D,2 | E,6 D,2 | ^C,4 D,4 | G,8 | z4 C,4- | C,2 C,2 B,,4- | %152
 B,,2 B,,2 A,,2 G,,2 | F,,4 G,,4 | C,8- | C,2 C,2 B,,2 C,2 | D,4 D,,4 | E,,8 | F,,8 | G,,8 | A,,8 | %161
 B,,8 | C,8 | D,8 | E,8 | F,8 | G,8 | A,8 | B,8 | C8 | D4 D,4 | E,6 D,2 | C,2 B,,2 A,,2 G,,2 | %173
 F,,4 G,,2 =F,,2 | E,,2 D,,2 C,,4 | D,,8- | D,,8- | D,,8- | D,,8- | D,,8- | D,,8- | D,,8- | D,,8- | %183
 D,,4 D,4 | ^C,2 z2 z4 |]!ff! ^C,2 z C, =C,2 z C, | B,,2 z B,, _B,,2 z B,, | %187
 A,,2 z A,, A,,2 z A,, | ^G,,2 z G,, =G,,2 z G,, | F,,2 z F,, =F,,2 z F,, | %190
 E,,2 z E,, _E,,2 z E,, | D,,2 z D,, D,,2 z D,, | D,,2 z D,, D,,2 z D,, | D,,2 z D,, | D,,2 z D,, | %195
 D,,2 z D,, D,,2 z D,, | D,,2 z D,, D,,2 z D,, | D,,2 z D,, D,,2 z D,, | D,,2 z D,, D,,2 z D,, | %199
 D,,2 z D,, D,,2 z2 | z4 D,,4- | D,,8 | !fermata!G,,8 |] %203
V:4
 x12 | x12 | x12 | x12 | x12 | x12 | x12 | x12 | x12 | x12 | x12 | x12 | x12 | x12 | x12 | x12 | %16
 x12 | x12 | x12 | x12 | x12 | x12 | x12 | x12 | x12 | x12 | x12 | x12 ||[M:2/2] z4 d4 | c8- | %30
 c2 c2 B4- | B2 B2 A2 G2 | F4 G4- | G2 G2 F4- | F2 F2 E4 | D8 | E4 A4- | A2 A2 G2 F2 | E4 A4- | %39
 A6 G2 | F4 B4- | B2 B2 A2 G2 | F6 E2 | D4 E4- | E2 E2 D4- | D4 ^C2 D2 | G4 F2 A2- | A2 B2 A2 G2- | %48
 G2 F2 d4- | d2 d2 ^c2 B2 | ^A8 | B2 =A2 G4 | F8 | ^G4 ^A2 B2 | ^c4 B2 =A2 | =G8- | G8- | %57
 G2 G2 F2 E2- | E2 D2 B4- | B2 B2 A2 G2 | F8 | E4 F2 G2 | A8- | A2 A2 G2 F2 | E8- | E2 D2 G4- | %66
 G6 F2 | G6 =F2 | E4 =F4 | E8 | ^F4 ^G2 A2 | B4 A2 =G2 | =F8 | E8- | E2 =F2 E2 D2- | D2 C2 A4- | %76
 A2 A2 =G2 ^F2 | E8 | D4 F4- | F2 F2 E4- | E2 E2 D2 C2 | d2 c2 B2 A2 | c2 B2 A2 G2 | A2 e2 d2 c2 | %84
 B8- | B2 c2 B2 A2- | A2 GA B4- | B2 B2 A4- | A2 A2 G2 F2 | E6 G2 | F4 E2 ^D2 | E3 =D C4 | B,8- | %93
 B,2 C2 B,2 A,2- | A,2 G,F, G,4 | C4- CC B,2- | B,2 E^D E4- | E4 =DE D2- | D4 d4 | c8 | d4 c2 _B2 | %101
 x8 | G8- | G2 A2 G2 =F2 | E4 c4- | c2 B2 A4- | A2 GF G4- | G2 =F2 E4 | D4 d4- | d4 B4- | %110
 B2 A^G A4- | A2 G2 =F4 | E4 ^F2 ^G2 | A2 A2 B2 ^c2 | d2 d2 d2 e2 | B4 A4- | A4 ^G4 | A4 e4 | d8- | %119
 d2 d2 c4- | c2 c2 B2 A2 | ^G4 A4- | A2 A2 ^G4 | A6 =G2 | =F2 E6- | E6 D2- | D2 G2 A4- | A2 G4 A2 | %128
 G4 A4- | A2 _B2 A2 G2- | G2 ^FE F2 GA | _B2 AB c2 Bc | d6 _e2 | d2 c2 _B4 | A4 =B2 ^c2 | d4 =c4 | %136
 _B6 c2 | d6 dc | _B6 A2 | G4 A4- | A2 _B2 A2 G2- | G2 =FE F4- | =F2 F2 E4 | D4 A4- | A2 G^F G4 | %145
 A8 | B8 | c2 d2 c2 _B2 | A8 | G2 A2 =B4- | B2 B2 A2 G2 | A4 B2 A2 | G4 F2 G2 | A4 G2 =F2 | E8 | %155
 D8- | D8- | D2 D2 C4- | C2 C2 B,2 A,2 | B,6 B,2 | C8 | D8- | D2 D2 C2 B,2 | A,2 c2 B2 A2 | G8- | %165
 G2 G2 F2 E2 | D2 f2 e2 d2 | c8- | c2 c2 B4- | B2 B2 A4- | A2 G2 F4- | F2 F2 E4 | D2 G2- GFGA | %173
 A6 GF | G2 =F2 E4 | D4 F4 | G4 G4- | G2 G2 F2 E2 | D6 d2 | c8- | c2 c2 B2 A2 | G2 B2 e4 | d8- | %183
 d6 c2 | _B2 z2 z4 |] x8 | x8 | x8 | x8 | x8 | x8 | x8 | x8 | x4 | x4 | x8 | x8 | x8 | x8 | x8 | %200
 x8 | x4 D4 | x8 |] %203
V:5
 x12 | x12 | x12 | x12 | x12 | x12 | x12 | x12 | x12 | x12 | x12 | x12 | x12 | x12 | x12 | x12 | %16
 x12 | x12 | x12 | x12 | x12 | x12 | x12 | x12 | x12 | x12 | x12 | x12 ||[M:2/2] z4 B4- | %29
 B2 B2 A4- | A2 A2 G2 F2 | E8 | D8- | D8- | D2 D2 C2 B,2 | x8 | x8 | x8 | x8 | x8 | x8 | x8 | x8 | %43
 x8 | x8 | x8 | E4 D2 F2 | x8 | x8 | x8 | x8 | x8 | x8 | x8 | x8 | x8 | x8 | x8 | x8 | x8 | x8 | %61
 x8 | x8 | x8 | x8 | x8 | x8 | x8 | x8 | x8 | x8 | x8 | x8 | x8 | x8 | x8 | x8 | x8 | x8 | x8 | %80
 x8 | B,4 d4 | G2 ^F2 E4- | E2 c2 A4- | A2 A2 G4 | x8 | x8 | x8 | x8 | x8 | x8 | x8 | x8 | x8 | %94
 x8 | x8 | x8 | x8 | x4 B4- | B2 B2 A4 | G8- | G2 G2 =F2 E2 | x8 | x8 | x8 | x8 | x8 | x8 | %108
 x2 A2 ^G2 A2 | B4 E4- | E4 A2 =G2 | =F2 E2 D2 C2 | B,4 C2 D2 | E2 E2 =F2 =G2 | A2 A2 B2 =c2 | %115
 B2 ^G2 E2 D2 | C2 D2 E2 D2 | C4 c4- | c2 c2 B4- | B2 B2 A2 =G2 | ^F4 =F4 | x8 | x8 | x8 | x8 | %125
 x8 | x8 | x8 | x8 | x8 | x8 | x8 | x8 | x8 | x8 | x8 | x8 | x8 | x8 | x8 | x8 | x8 | x8 | x8 | %144
 x8 | x8 | x8 | x8 | x8 | x8 | x8 | x8 | x8 | x8 | x8 | x8 | x8 | x8 | x8 | x8 | x8 | x8 | x8 | %163
 x8 | x8 | x8 | x8 | x8 | x8 | x8 | x8 | x8 | x8 | x8 | x8 | x4 F4- | F2 F2 E4- | E2 E2 D2 C2 | %178
 B,6 B2- | B2 B2 A2 G2 | F4 G2 F2 | E2 G2 c4- | c2 B2 A2 G2 | A8 | G2 z2 z4 |] x8 | x8 | x8 | x8 | %189
 x8 | x8 | x8 | x8 | x4 | x4 | x8 | x8 | x8 | x8 | x8 | x8 | x8 | x8 |] %203
V:6
 x12 | x12 | x12 | x12 | x12 | x12 | x12 | x12 | x12 | x12 | x12 | x12 | x12 | x12 | x12 | x12 | %16
 x12 | x12 | x12 | x12 | x12 | x12 | x12 | x12 | x12 | x12 | x12 | x12 ||[M:2/2] x8 | x8 | x8 | %31
 x8 | x8 | x8 | x8 | PF,2 E,D, G,4- | G,2 G,2 F,2 E,2 | D,8 | A,4 D,2 E,2 | F,2 G,2 A,4- | %40
 A,2 A,2 G,2 F,2 | E,4 A,4- | A,2 G,2 F,4- | F,2 F,2 E,2 D,2 | ^C,4 D,2 E,2 | F,2 G,2 A,4- | A,8- | %47
 A,8- | A,4[K:treble] D2 ^C2 | B,4 E2 D2 | ^C4 D2 E2 | D2 ^C2 B,4 |[K:bass] F,8 | E,6 D,2 | %54
 ^C,4 D,4 | E,2 F,2 G,4- | G,2 F,2 B,4 | F,8- | F,4 G,4- | G,4 A,4- | A,4 B,4- | B,4 A,2 G,2 | %62
 F,2 G,2 F,2 E,2 | D,8 | E,8 | A,4 G,2 C2 | B,F,G,^C, D,4- | D,4 B,4 | A,8 | P^G,2 ^F,E, A,4 | %70
 D,6 C,2 | B,,4 C,4 | D,8 | E,8- | E,8- | E,6 A,=G, | P^F,2 E,D, G,4- | G,4 A,4- | A,2 G,2 F,4 | %79
 E,4 G,4 | A,8 | x8 | x8 | x8 | x8 | B,8- | B,4 C,4- | C,4 F,4- | F,4 G,4- | G,2 ^G,2 A,2 E,2 | %90
 F,4 G,2 F,2 | E,8 | B,,8- | B,,8- | B,,4 E,4- | E,2 E,2 ^D,4 | E,4 G,4- | G,2 G,2 F,4 | %98
 G,4- G,A,G,=F, | x8 | x8 | x8 | G,8- | G,8- | G,4 A,4- | A,8 | B,2 A,2 G,2 F,2 | E,4 A,4 | %108
 D,6 C,2 | x8 | x8 | x8 | x8 | x8 | x8 | x8 | x8 | x8 | x8 | x8 | x8 | PB,3 A,/B,/ C2 D2 | %122
 E2 B,D/C/ D4 | C2 B,2 A,4 | ^G,6 ^F,E, |[K:treble] A,8 | G,2 A,_B, A,4 | D4 C4 | _B,4 A,4- | %129
 A,8- | A,4 D4- | D2 D2 C4- | C2 C2 _B,2 A,2 | _B,2 C2 D4 | ^C4 D2 E2 | A,2 B,2 =C4 | D8- | %137
 D2 E2 =F4 | G6 D2 | =E4 D4 | E4 A,4- | A,8 |[K:bass] G,8 | A,8 | G,2 B,2 E2 D2 | C2 B,2 A,4 | %146
 G,8- | G,8 | A,8 | B,8 | C6 B,2 | A,4 G,4- | G,4 C,2 B,,2 | A,,2 D,4 G,2- | G,2 G,2 A,4 | D,8- | %156
 D,2 E,2 D,2 C,2 | B,,4 C,2 B,,2 | A,,8 | D,4 E,2 D,2 | C,4 =F,2 E,2 | D,8 | C,2 G,2 A,4- | %163
 A,2 A,2 B,4- | B,2 B,2 C4- | C2[K:treble] C2 D4- | D2 D2 E4- | E2 E2 F4- | F2 F2 G4- | G4 A2 G2 | %170
 F2 E2 D2 C2 | B,2 A,2 G,4 |[K:bass] F,2 G,2 A,4 | D,4 G,4 | C,6 B,,2 | A,,4 D,4 | x8 | x8 | x8 | %179
 x8 | x8 | C6 B,2 | A,4 B,4 | A,4 D,4 | G,2 z2 z4 |] x8 | x8 | x8 | x8 | x8 | x8 | x8 | x8 | x4 | %194
 x4 | x8 | x8 | x8 | x8 | x8 | x8 | x4 D,4 | x8 |] %203

